X: 10
T: L'heure est venue / Circumdederunt me
N: Derived from Agr3002-Lheure_est_venue__Circumdederunt_me.krn
C: Alexander Agricola
%%abc-version 2.0
%%abcx-abcm2ps-target-version 5.9.1 (29 Sep 2008)
%%abc-creator hum2abc beta
%%abcx-conversion-date 2019/02/16 20:17:15
%%abc-edited-by Jesse Rodin
%%abc-edited-by Megan K. Eagen 05/28/2012
%%abcx-initial-encoding-date 2012/06/04/
%%humdrum-veritas 2981834161
%%humdrum-veritas-data 1610598560
%%linebreak <none>
%%barnumbers 0
L: 1/4
M: 2/1
Q: 1/2=120
V: 1 clef=treble
V: 2 clef=treble-8
V: 3 clef=bass
K: F
[V:1] D8 | 
[V:2] d8 | 
[V:3] z8 | 
[V:1] F8 | 
[V:2] d8 | 
[V:3] z8 | 
[V:1] E6D2 | 
[V:2] c8 | 
[V:3] z8 | 
[V:1] C4F4- | 
[V:2] A6=B2 | 
[V:3] z8 | 
[V:1] F2EDF4 | 
[V:2] c4d4- | 
[V:3] z8 | 
[V:1] E8 | 
[V:2] d4^c4 | 
[V:3] z8 | 
[V:1] !fermata!D8 | 
[V:2] !fermata!d8 | 
[V:3] !fermata!D,8 | 
[V:1] A8- | 
[V:2] f8- | 
[V:3] D,8- | 
[V:1] A4G4 | 
[V:2] f4e4 | 
[V:3] D,8 | 
[V:1] F8 | 
[V:2] d8 | 
[V:3] D,8 | 
[V:1] G8 | 
[V:2] e6d2 | 
[V:3] C,8- | 
[V:1] E8- | 
[V:2] c6=BA | 
[V:3] C,8 | 
[V:1] E6DC | 
[V:2] G4A4 | 
[V:3] C,6B,,A,, | 
[V:1] D4G4- | 
[V:2] =B8- | 
[V:3] G,,8- | 
[V:1] G2F2E2D2 | 
[V:2] B8 | 
[V:3] G,,8 | 
[V:1] !fermata!C8 | 
[V:2] !fermata!A8 | 
[V:3] !fermata!A,,8 | 
[V:1] F8- | 
[V:2] d8 | 
[V:3] z8 | 
[V:1] F8 | 
[V:2] d6c=B | 
[V:3] z8 | 
[V:1] F4E4 | 
[V:2] A4G2c2- | 
[V:3] z8 | 
[V:1] D8 | 
[V:2] c2=BA=B4 | 
[V:3] z8 | 
[V:1] C4F4 | 
[V:2] c4d4 | 
[V:3] z8 | 
[V:1] E4A4- | 
[V:2] c4A4 | 
[V:3] z8 | 
[V:1] A4G4 | 
[V:2] B8 | 
[V:3] z8 | 
[V:1] A8 | 
[V:2] A6F2- | 
[V:3] D,8- | 
[V:1] F4G4 | 
[V:2] F2EDC4 | 
[V:3] D,4E,4 | 
[V:1] A6GF | 
[V:2] z4c3d | 
[V:3] F,6E,D, | 
[V:1] G3FG4 | 
[V:2] e2f4e2 | 
[V:3] C,8 | 
[V:1] F8- | 
[V:2] f4d4- | 
[V:3] D,4B,,4- | 
[V:1] F8 | 
[V:2] d2c=BA4 | 
[V:3] B,,2C,2D,4 | 
[V:1] z4D4 | 
[V:2] B6A2 | 
[V:3] G,,8 | 
[V:1] E4F4 | 
[V:2] G4A4 | 
[V:3] z8 | 
[V:1] G8 | 
[V:2] G4B4 | 
[V:3] z4G,,4 | 
[V:1] C6D2 | 
[V:2] A8 | 
[V:3] A,,6B,,2 | 
[V:1] E6F2 | 
[V:2] G6A2 | 
[V:3] C,6B,,A,, | 
[V:1] G4A4 | 
[V:2] =B4A2GF | 
[V:3] G,,4F,,4 | 
[V:1] G2E2F4 | 
[V:2] E4D4 | 
[V:3] C,4D,4 | 
[V:1] E3DD4- | 
[V:2] C4D4 | 
[V:3] A,,4B,,4 | 
[V:1] D2^C=B,C4 | 
[V:2] E8 | 
[V:3] A,,8 | 
[V:1] !fermata!D8 | 
[V:2] !fermata!D8 | 
[V:3] !fermata!A,8 | 
[V:1] z8 | 
[V:2] z8 | 
[V:3] z8 | 
[V:1] E8 | 
[V:2] c8 | 
[V:3] A,,8 | 
[V:1] E4E4- | 
[V:2] c4c4- | 
[V:3] A,,4A,,4- | 
[V:1] E4E4 | 
[V:2] c2=BAG4 | 
[V:3] A,,2B,,2C,4 | 
[V:1] F6ED | 
[V:2] A8 | 
[V:3] F,,8 | 
[V:1] E8- | 
[V:2] G8 | 
[V:3] C,8- | 
[V:1] E8 | 
[V:2] z4c4- | 
[V:3] C,8- | 
[V:1] z4G4 | 
[V:2] c2d2e4 | 
[V:3] C,8 | 
[V:1] A4A4 | 
[V:2] f6e2 | 
[V:3] z8 | 
[V:1] =B4c4 | 
[V:2] d4c4 | 
[V:3] z8 | 
[V:1] =B2A4GF | 
[V:2] d4f4 | 
[V:3] z8 | 
[V:1] G4E4 | 
[V:2] e4c4 | 
[V:3] z8 | 
[V:1] F4F4 | 
[V:2] =B2A4GF | 
[V:3] z8 | 
[V:1] E4F4- | 
[V:2] G4F2A2- | 
[V:3] z8 | 
[V:1] F2G2F2E2 | 
[V:2] A2G2A4- | 
[V:3] z8 | 
[V:1] D8 | 
[V:2] A2=BA=B4 | 
[V:3] z8 | 
[V:1] C8- | 
[V:2] c6=B2 | 
[V:3] A,,8- | 
[V:1] C8 | 
[V:2] A4G2A2- | 
[V:3] A,,4C,4- | 
[V:1] z8 | 
[V:2] A2GFG4 | 
[V:3] C,2D,2E,4 | 
[V:1] A,8- | 
[V:2] F8- | 
[V:3] F,4D,4- | 
[V:1] A,4C4- | 
[V:2] F8 | 
[V:3] D,2C,B,,A,,2A,2- | 
[V:1] C2D2E4 | 
[V:2] z8 | 
[V:3] A,2B,2G,4 | 
[V:1] F6G2 | 
[V:2] A8- | 
[V:3] F,8 | 
[V:1] A4G2A2- | 
[V:2] A4c4- | 
[V:3] z8 | 
[V:1] A2GFG4 | 
[V:2] c2d2e4 | 
[V:3] z4C,4 | 
[V:1] F6E2 | 
[V:2] f4d4- | 
[V:3] D,8 | 
[V:1] D4D4 | 
[V:2] d2c2B2AG | 
[V:3] G,,8 | 
[V:1] C4G4- | 
[V:2] A4B4- | 
[V:3] z4G,,4- | 
[V:1] G4F4- | 
[V:2] B2A2G2F2 | 
[V:3] G,,4A,,4 | 
[V:1] F4E4 | 
[V:2] G8 | 
[V:3] B,,4C,4 | 
[V:1] F8 | 
[V:2] F8- | 
[V:3] D,8- | 
[V:1] z4F4 | 
[V:2] F8 | 
[V:3] D,8 | 
[V:1] E4E4 | 
[V:2] z4c4 | 
[V:3] C,6B,,2 | 
[V:1] D8 | 
[V:2] =B4=B4 | 
[V:3] G,,8 | 
[V:1] C8 | 
[V:2] A8 | 
[V:3] A,,6B,,2 | 
[V:1] z4D4 | 
[V:2] G8 | 
[V:3] C,4B,,4 | 
[V:1] E4E4 | 
[V:2] z4G4 | 
[V:3] C,6E,2 | 
[V:1] F6ED | 
[V:2] A4=B4 | 
[V:3] D,3C,D,4 | 
[V:1] E4F4 | 
[V:2] c6=BA | 
[V:3] C,4z2F,2 | 
[V:1] G6FE | 
[V:2] =B4c4 | 
[V:3] E,3D,E,4 | 
[V:1] F8 | 
[V:2] d6c2 | 
[V:3] D,8 | 
[V:1] G4A4- | 
[V:2] =B4A4 | 
[V:3] E,4F,4 | 
[V:1] A2G4FE | 
[V:2] =B4G4 | 
[V:3] E,8 | 
[V:1] F4E4- | 
[V:2] A8 | 
[V:3] D,4C,4 | 
[V:1] E4D4- | 
[V:2] F4G4 | 
[V:3] D,4G,,4 | 
[V:1] D4^C4 | 
[V:2] E8 | 
[V:3] A,,8 | 
[V:1] D8 ||  
[V:2] D8 ||  
[V:3] D,8 ||  
[V:1] A,4A,4 | 
[V:2] z8 | 
[V:3] z8 | 
[V:1] C6D2 | 
[V:2] A4A4 | 
[V:3] z8 | 
[V:1] E8 | 
[V:2] c6d2 | 
[V:3] z8 | 
[V:1] C4G4- | 
[V:2] e8 | 
[V:3] z8 | 
[V:1] G4A4 | 
[V:2] c6=BA | 
[V:3] z8 | 
[V:1] =B6AB | 
[V:2] G4d4 | 
[V:3] z8 | 
[V:1] c4=B2A2- | 
[V:2] e4d2f2- | 
[V:3] z8 | 
[V:1] AGFEF2E2- | 
[V:2] fedcd2c2 | 
[V:3] z8 | 
[V:1] E2A4G2 | 
[V:2] A4=B4 | 
[V:3] z8 | 
[V:1] A8 | 
[V:2] A4F4- | 
[V:3] D,8- | 
[V:1] z8 | 
[V:2] F2D2E4 | 
[V:3] D,4C,4 | 
[V:1] A8 | 
[V:2] D4d4- | 
[V:3] F,8 | 
[V:1] G8 | 
[V:2] d4^c4 | 
[V:3] E,8 | 
[V:1] F8 | 
[V:2] d8 | 
[V:3] D,8 | 
[V:1] F4E4 | 
[V:2] z4c4 | 
[V:3] A,8 | 
[V:1] F6ED | 
[V:2] d4d4 | 
[V:3] D,6C,B,, | 
[V:1] C8 | 
[V:2] e6dc | 
[V:3] A,,3G,,A,,4 | 
[V:1] D8 | 
[V:2] =B3A=B4 | 
[V:3] G,,8 | 
[V:1] z4F4 | 
[V:2] A4z2d2 | 
[V:3] D,8 | 
[V:1] G4G4 | 
[V:2] c2B4AG | 
[V:3] E,8 | 
[V:1] A8 | 
[V:2] F4c4 | 
[V:3] D,4F,4- | 
[V:1] A6GF | 
[V:2] d4f4 | 
[V:3] F,2E,2D,4 | 
[V:1] G8 | 
[V:2] e8 | 
[V:3] C,8 | 
[V:1] z4G4 | 
[V:2] z4e4 | 
[V:3] z4C,4- | 
[V:1] G4G4 | 
[V:2] e4e4 | 
[V:3] C,4C,4 | 
[V:1] A4G4- | 
[V:2] c4=B4 | 
[V:3] F,4G,4 | 
[V:1] G2F2F4- | 
[V:2] c4F4 | 
[V:3] C,4D,4 | 
[V:1] F4E4 | 
[V:2] G6FE | 
[V:3] C,8 | 
[V:1] F4D4 | 
[V:2] D8 | 
[V:3] B,,8 | 
[V:1] C8 | 
[V:2] E4F4- | 
[V:3] A,,4F,,4 | 
[V:1] z4G4 | 
[V:2] F2EDE4 | 
[V:3] G,,8 | 
[V:1] A4A4 | 
[V:2] F8 | 
[V:3] F,,8 | 
[V:1] G2A4GF | 
[V:2] c4c4- | 
[V:3] z4F,,4 | 
[V:1] E4E4 | 
[V:2] c2=BAG4 | 
[V:3] C,6E,2 | 
[V:1] F4F4 | 
[V:2] A4=B4 | 
[V:3] D,3C,D,4 | 
[V:1] E2G3FED | 
[V:2] c4G4 | 
[V:3] C,6B,,2 | 
[V:1] C4D4- | 
[V:2] A4D4 | 
[V:3] A,,4B,,4 | 
[V:1] D4^C4 | 
[V:2] E8 | 
[V:3] A,,8 | 
[V:1] D8 | 
[V:2] D4F4 | 
[V:3] B,,8 | 
[V:1] C4A,4 | 
[V:2] E4A4- | 
[V:3] C,4D,4- | 
[V:1] =B,8 | 
[V:2] A4G4 | 
[V:3] D,4E,4 | 
[V:1] A,8- | 
[V:2] A6G2 | 
[V:3] F,6E,2 | 
[V:1] A,8- | 
[V:2] F4E4 | 
[V:3] D,4C,4 | 
[V:1] A,8- | 
[V:2] F6ED | 
[V:3] D,6C,2 | 
[V:1] A,8 |]  
[V:2] E8 |]  
[V:3] A,,8 |]  



